X:1
T:9a Sinfonia
%%score { 1 2 }
L:1/8
M:4/4
K:C
V:1 treble nm="Piano" snm="Pno."
V:2 bass nm="Piano"
V:1
 E2 E2 F2 G2 | G2 F2 E2 D2 | C2 C2 D2 E2 | E4 D4 | E4 F2 G2 | G2 F2 E2 D2 | C2 C2 D2 E2 | D4 C4 | %8
 D4 E2 C2 | D2 F2 E2 C2 | D2 F2 E2 C2 | D2 G2 G4 | E2 E2 F2 G2 | G2 F2 E2 D2 | C2 C2 D2 E2 | %15
 D4 C4 | z8 |] %17
V:2
 C,E,G,E, C,E,G,E, | G,B,DB, G,B,DB, | C,E,G,E, C,E,G,E, | C,E,G,E, G,B,DB, | C,E,G,E, C,E,G,E, | %5
 G,B,DB, G,B,DB, | C,E,G,E, C,E,G,E, | G,B,DB, C,E,G,E, | G,B,DB, C,E,G,E, | G,B,DB, C,E,G,E, | %10
 G,B,DB, C,E,G,E, | G,B,DB, G,B,DB, | C,E,G,E, C,E,G,E, | G,B,DB, G,B,DB, | C,E,G,E, C,E,G,E, | %15
 G,B,DB, C,E,G,E, | C,8 |] %17

